svg/connect.svg

<svg viewBox="0 0 20 20" xmlns="http://www.w3.org/2000/svg">
<rect width="100%" height="100%" fill="#009432"/>
<path fill-rule="evenodd" clip-rule="evenodd" d="M11.5089 2.4253C12.9711 3.25709 14.4299 4.0942 15.8867 4.93531C16.8667 5.50159 17.363 6.35601 17.369 7.47992C17.3764 9.16547 17.3778 10.8517 17.3684 12.5372C17.3623 13.6472 16.8687 14.4956 15.9022 15.0559C14.4366 15.9043 12.9677 16.7467 11.4948 17.5819C10.5135 18.1375 9.51611 18.1402 8.53415 17.5852C7.36184 16.9222 6.19413 16.2512 5.02639 15.5803C4.71626 15.4021 4.40613 15.2239 4.09592 15.0459C3.33531 14.61 2.88994 13.9493 2.7028 13.1055C2.68996 13.0473 2.67054 12.9903 2.65117 12.9334C2.64222 12.9072 2.63327 12.8809 2.625 12.8546V7.19512C2.64306 7.12534 2.6594 7.05497 2.67575 6.9846C2.71163 6.83019 2.74749 6.6758 2.8014 6.52769C3.04756 5.84895 3.4661 5.30995 4.10933 4.94529C4.92372 4.48376 5.73525 4.01776 6.54674 3.55177C7.20358 3.17459 7.86043 2.79741 8.51873 2.42264C9.51275 1.85635 10.5162 1.86101 11.5089 2.4253ZM4.35901 10.1876C4.39257 10.1765 4.41999 10.1675 4.4447 10.1536C5.33543 9.66387 6.22549 9.66055 7.12763 10.133C7.24501 10.1949 7.41135 10.2168 7.54214 10.1916C9.12507 9.8828 10.4719 9.15282 11.5357 7.93774C11.6222 7.83926 11.6806 7.68621 11.6879 7.55512C11.7403 6.63483 12.1541 5.93146 12.9308 5.43305C12.9813 5.40092 13.0302 5.36604 13.0894 5.32377C13.1221 5.30041 13.1581 5.27471 13.1991 5.24607C12.94 5.09753 12.6849 4.95204 12.4327 4.80824C11.8512 4.47663 11.2855 4.15406 10.7241 3.82404C10.2452 3.54256 9.78574 3.54256 9.3055 3.82005C8.01632 4.5647 6.72398 5.3031 5.43128 6.0417C5.26401 6.13728 5.09625 6.23313 4.92897 6.32873C4.51915 6.56296 4.28238 6.91697 4.27165 7.37944C4.25622 8.05032 4.25893 8.72198 4.26164 9.39352C4.26246 9.59786 4.26329 9.80227 4.2636 10.0066C4.2636 10.0475 4.27445 10.0881 4.28645 10.1331C4.29261 10.1561 4.29906 10.1803 4.30451 10.2062C4.32444 10.199 4.34247 10.193 4.35901 10.1876ZM15.0497 13.6984C15.548 13.4156 15.77 12.9917 15.7734 12.4407C15.7777 11.819 15.7763 11.1974 15.7749 10.5753C15.7746 10.4317 15.7743 10.288 15.774 10.1443C15.7736 10.0784 15.768 10.0124 15.762 9.94065C15.7593 9.90811 15.7564 9.87437 15.7539 9.83888C15.7304 9.843 15.7094 9.84539 15.6905 9.84754C15.6545 9.85163 15.6263 9.85484 15.603 9.8675C14.7036 10.3533 13.8121 10.3273 12.9194 9.84554C12.8302 9.79696 12.7021 9.77966 12.6015 9.79829C11.0105 10.0878 9.663 10.8191 8.58513 12.0195C8.47714 12.1399 8.4047 12.3276 8.39263 12.49C8.32153 13.4242 7.88623 14.1249 7.08336 14.608C7.03646 14.6361 6.99073 14.6665 6.93578 14.7031C6.90745 14.7219 6.87655 14.7425 6.8419 14.7651C7.07361 14.8981 7.3029 15.0293 7.53031 15.1595L7.53402 15.1616C8.13452 15.5054 8.7226 15.842 9.30684 16.1831C9.77367 16.4559 10.2284 16.4633 10.6986 16.1918C12.1467 15.3566 13.5955 14.5229 15.0497 13.6984Z" fill="white"/>
</svg>

<svg xmlns="http://www.w3.org/2000/svg" viewBox="0 0 20 20">
  <rect width="100%" height="100%" fill="#009432"/>
  <path fill="#fff" fill-rule="evenodd" d="m11.5 2.43 4.39 2.5a2.79 2.79 0 0 1 1.48 2.55v5.06c0 1.1-.5 1.96-1.47 2.52-1.46.84-2.93 1.69-4.4 2.52-.99.56-1.98.56-2.97 0l-3.5-2-.93-.53a2.83 2.83 0 0 1-1.4-1.94l-.05-.18-.02-.08V7.2l.05-.22.12-.45c.25-.68.67-1.22 1.3-1.58a494.73 494.73 0 0 0 4.42-2.53c1-.56 2-.56 2.99 0Zm-7.14 7.76.08-.04c.9-.49 1.79-.49 2.69-.02.12.06.28.09.41.06a6.9 6.9 0 0 0 4-2.25c.08-.1.14-.25.15-.38.05-.93.46-1.63 1.24-2.13a3.61 3.61 0 0 0 .27-.18l-.77-.44-1.7-.99a1.3 1.3 0 0 0-1.42 0L5.43 6.04l-.5.29a1.2 1.2 0 0 0-.66 1.05c-.01.67-.01 1.34 0 2.01v.62c0 .04 0 .08.02.12l.01.08.06-.02Zm10.69 3.5c.5-.27.72-.7.72-1.25V9.94l-.02-.1h-.06l-.09.03c-.9.48-1.79.46-2.68-.02a.52.52 0 0 0-.32-.05 6.91 6.91 0 0 0-4.01 2.22c-.11.12-.19.3-.2.47-.07.93-.5 1.63-1.3 2.12l-.15.1-.1.06.69.39 1.78 1.02c.46.28.92.28 1.39.01l4.35-2.5Z" clip-rule="evenodd"/>
</svg>
